img/insta.svg

<svg width="24" height="24" viewBox="0 0 24 24" fill="none" xmlns="http://www.w3.org/2000/svg">
<path d="M12 2.775C15 2.775 15.3593 2.78625 16.5458 2.84025C17.7897 2.79786 19.0018 3.23835 19.9282 4.0695C20.7594 4.99598 21.1999 6.20807 21.1575 7.452C21.2115 8.64075 21.225 9 21.225 12C21.225 15 21.2137 15.3593 21.1597 16.5458C21.2021 17.7897 20.7617 19.0018 19.9305 19.9282C19.0041 20.7595 17.792 21.1999 16.548 21.1575C15.3615 21.2115 15.006 21.2228 12.0023 21.2228C8.9985 21.2228 8.643 21.2115 7.4565 21.1575C6.21257 21.1999 5.00047 20.7594 4.074 19.9282C3.24278 19.0019 2.80228 17.7897 2.84475 16.5458C2.7885 15.3593 2.775 15.0037 2.775 12C2.775 8.99625 2.78625 8.64075 2.84025 7.45425C2.79786 6.21032 3.23835 4.99822 4.0695 4.07175C4.99654 3.24005 6.20955 2.79952 7.45425 2.8425C8.64075 2.7885 9 2.775 12 2.775ZM12 0.75C8.94525 0.75 8.562 0.76275 7.36125 0.8175C5.60935 0.786083 3.91427 1.43909 2.63625 2.63775C1.43739 3.91565 0.784343 5.61082 0.816 7.36275C0.76275 8.562 0.75 8.94525 0.75 12C0.75 15.0548 0.76275 15.438 0.8175 16.6388C0.786083 18.3907 1.43909 20.0858 2.63775 21.3638C3.91565 22.5626 5.61082 23.2157 7.36275 23.184C8.56275 23.2388 8.94675 23.2515 12.0015 23.2515C15.0563 23.2515 15.4395 23.2388 16.6403 23.184C18.3922 23.2154 20.0872 22.5624 21.3652 21.3638C22.5641 20.0858 23.2171 18.3907 23.1855 16.6388C23.2402 15.4387 23.253 15.0548 23.253 12C23.253 8.94525 23.2402 8.562 23.1855 7.36125C23.2169 5.60935 22.5639 3.91427 21.3652 2.63625C20.0873 1.43739 18.3922 0.784343 16.6403 0.816C15.438 0.76275 15.0548 0.75 12 0.75Z" fill="white"/>
<path d="M12 6.22559C10.8578 6.22559 9.74129 6.56429 8.79156 7.19885C7.84184 7.83345 7.10167 8.73533 6.66458 9.79058C6.22748 10.8458 6.11312 12.007 6.33594 13.1273C6.55877 14.2474 7.10879 15.2764 7.91646 16.0841C8.72406 16.8918 9.75306 17.4418 10.8733 17.6646C11.9935 17.8874 13.1548 17.7731 14.21 17.336C15.2652 16.8989 16.1671 16.1587 16.8017 15.209C17.4363 14.2593 17.775 13.1428 17.775 12.0006C17.775 10.4689 17.1665 9.00008 16.0835 7.91708C15.0005 6.83402 13.5316 6.22559 12 6.22559ZM12 15.7506C11.2583 15.7506 10.5333 15.5306 9.91656 15.1186C9.29991 14.7065 8.81924 14.1209 8.53544 13.4356C8.25164 12.7505 8.17731 11.9964 8.32206 11.269C8.46674 10.5416 8.82389 9.87338 9.34836 9.3489C9.87276 8.8245 10.5409 8.46735 11.2684 8.32268C11.9958 8.17793 12.7498 8.25218 13.435 8.53605C14.1202 8.81985 14.7059 9.30053 15.118 9.91718C15.53 10.5339 15.75 11.2589 15.75 12.0006C15.75 12.9952 15.3549 13.949 14.6516 14.6522C13.9483 15.3555 12.9946 15.7506 12 15.7506Z" fill="white"/>
<path d="M18.0053 7.34502C18.7508 7.34502 19.3553 6.7406 19.3553 5.99502C19.3553 5.24944 18.7508 4.64502 18.0053 4.64502C17.2597 4.64502 16.6553 5.24944 16.6553 5.99502C16.6553 6.7406 17.2597 7.34502 18.0053 7.34502Z" fill="white"/>
</svg>

<svg width="24" height="24" fill="none" xmlns="http://www.w3.org/2000/svg"><path d="M12 2.775c3 0 3.36.011 4.546.065a4.82 4.82 0 0 1 3.382 1.23 4.82 4.82 0 0 1 1.23 3.382c.053 1.189.067 1.548.067 4.548s-.011 3.36-.065 4.546a4.819 4.819 0 0 1-1.23 3.382 4.819 4.819 0 0 1-3.382 1.23c-1.186.053-1.542.065-4.546.065-3.004 0-3.359-.011-4.546-.066a4.82 4.82 0 0 1-3.382-1.229 4.818 4.818 0 0 1-1.23-3.382c-.055-1.187-.069-1.542-.069-4.546 0-3.004.011-3.36.065-4.546a4.82 4.82 0 0 1 1.23-3.382 4.82 4.82 0 0 1 3.384-1.23C8.641 2.788 9 2.775 12 2.775ZM12 .75c-3.055 0-3.438.013-4.639.068a6.73 6.73 0 0 0-4.725 1.82 6.728 6.728 0 0 0-1.82 4.725C.763 8.562.75 8.945.75 12c0 3.055.013 3.438.068 4.639a6.73 6.73 0 0 0 1.82 4.725 6.728 6.728 0 0 0 4.725 1.82c1.2.055 1.584.067 4.638.067 3.055 0 3.439-.012 4.64-.067a6.73 6.73 0 0 0 4.724-1.82 6.729 6.729 0 0 0 1.82-4.725c.055-1.2.068-1.584.068-4.639s-.013-3.438-.067-4.639a6.73 6.73 0 0 0-1.82-4.725A6.728 6.728 0 0 0 16.64.816C15.438.763 15.055.75 12 .75Z" fill="#fff"/><path d="M12 6.226a5.775 5.775 0 1 0 0 11.55 5.775 5.775 0 0 0 0-11.55Zm0 9.525a3.75 3.75 0 1 1 0-7.502 3.75 3.75 0 0 1 0 7.502ZM18.005 7.345a1.35 1.35 0 1 0 0-2.7 1.35 1.35 0 0 0 0 2.7Z" fill="#fff"/></svg>
